docs/public/icons/fa-link.svg

<svg xmlns="http://www.w3.org/2000/svg" viewBox="0 0 640 512">
<!--! Font Awesome Pro 6.2.0 by @fontawesome - https://fontawesome.com License - https://fontawesome.com/license (Commercial License) Copyright 2022 Fonticons, Inc.-->
  <path d="M173 131.4c49.1-49.88 130.9-49.88 180.8 0 47.5 47.5 49.3 123.5 6.2 174.2l-5.3 6.1a16 16 0 0 1-22.6 1.6c-6.6-5.7-7.4-15.8-1.6-22.5l5.4-6.2c32.9-38 30.9-95-4.7-130.5a95.66 95.66 0 0 0-135.5 0L71.1 278.6a96.03 96.03 0 0 0 135.8 135.8l22.6-22.6c6.2-6.3 16.4-6.3 22.6 0 6.3 6.2 6.3 16.3 0 22.6L229.5 437c-50 50-131.04 50-181.03 0-49.99-50-49.99-131.9 0-181L173 131.4zm293.1 249.2c-49.1 49.9-130 49.9-179.9 0-47.5-47.5-50.2-123.5-7.1-174.2l6.2-6.1a16 16 0 0 1 22.6-1.6c6.6 5.7 7.4 15.8 1.6 22.5l-5.4 6.2c-32.9 38-30.9 95 4.7 130.5a95.66 95.66 0 0 0 135.5 0l124.6-124.5c37.5-37.5 37.5-98.3 0-135.79-37.5-37.49-98.3-37.49-135.8 0l-22.6 22.59c-6.2 6.3-16.4 6.3-22.6 0-6.3-7.1-6.3-16.3 0-22.59l22.6-22.63c50-49.99 131-49.99 181 0 50 49.12 50 131.02 0 180.12L466.1 380.6z"/>
</svg>

<svg xmlns="http://www.w3.org/2000/svg" viewBox="0 0 640 512"><!--! Font Awesome Pro 6.2.0 by @fontawesome - https://fontawesome.com License - https://fontawesome.com/license (Commercial License) Copyright 2022 Fonticons, Inc. --><path d="M173 131.4C222.1 81.52 303.9 81.52 353.8 131.4C401.3 178.9 403.1 254.9 360 305.6L354.7 311.7C348.9 318.4 338.8 319.1 332.1 313.3C325.5 307.6 324.7 297.5 330.5 290.8L335.9 284.6C368.8 246.6 366.8 189.6 331.2 154.1C293.8 116.6 233.1 116.6 195.7 154.1L71.1 278.6C33.61 316.1 33.61 376.9 71.1 414.4C108.6 451.9 169.4 451.9 206.9 414.4L229.5 391.8C235.7 385.5 245.9 385.5 252.1 391.8C258.4 398 258.4 408.1 252.1 414.4L229.5 437C179.5 487 98.46 487 48.47 437C-1.516 387-1.516 305.1 48.47 256L173 131.4zM466.1 380.6C417 430.5 336.1 430.5 286.2 380.6C238.7 333.1 236 257.1 279.1 206.4L285.3 200.3C291.1 193.6 301.2 192.9 307.9 198.7C314.5 204.4 315.3 214.5 309.5 221.2L304.1 227.4C271.2 265.4 273.2 322.4 308.8 357.9C346.2 395.4 406.9 395.4 444.3 357.9L568.9 233.4C606.4 195.9 606.4 135.1 568.9 97.61C531.4 60.12 470.6 60.12 433.1 97.61L410.5 120.2C404.3 126.5 394.1 126.5 387.9 120.2C381.6 113.1 381.6 103.9 387.9 97.61L410.5 74.98C460.5 24.99 541.5 24.99 591.5 74.98C641.5 124.1 641.5 206 591.5 255.1L466.1 380.6z"/></svg>
